X:1
T:Andante Op.120, No.4
T:Ferdinando Carulli (1770-1841)
%%score { ( 1 2 ) ( 3 4 ) } { ( 5 6 ) ( 7 8 ) }
L:1/8
Q:1/4=60
M:2/4
K:A
V:1 treble-8 nm="Guitare classique"
V:2 treble-8 
V:3 tab stafflines=6 strings=E2,A2,D3,G3,B3,E4 nostems nm="Guitare classique [Tablature]"
V:4 tab stafflines=6 strings=E2,A2,D3,G3,B3,E4 nostems 
V:5 treble-8 nm="Guitare classique"
V:6 treble-8 
V:7 tab stafflines=6 strings=E2,A2,D3,G3,B3,E4 nostems nm="Guitare classique [Tablature]"
V:8 tab stafflines=6 strings=E2,A2,D3,G3,B3,E4 nostems 
V:1
"_" e/!2!d/ | d/c/B/c/ e/d/c/d/ | fe D/f/g/a/ | a/g/f/e/ e/d/c/d/ | !>!^Bc- ce/d/ | %5
 d/c/B/c/ e/d/c/d/ | !>!fe D/f/g/a/ | a/g/f/e/ e/d/c/B/ | Ac A e/e/ |"_" ^d>a g/f/e/d/ | %10
 e>g f/e/^d/e/ | ^d>a g/f/e/d/ | e/f/g/f/ e/d/c/B/ |"_" d/c/B/c/ e/d/c/d/ | fe D/f/g/a/ | %15
 a/g/f/e/ e/d/c/B/ | A/a/"_dolce"g/f/ ^d/e/B/=d/ | c/a/g/f/ ^d/e/=d/B/ | A/a/g/f/ ^d/e/B/=d/ | %19
 c/a/g/f/ ^d/e/=d/B/ | A2"_" [ca]2 | [ca]2 x!fine! ||[K:C]"_" e/d/ | d/c/B/c/ e/d/^c/d/ | %24
 !>!fe A,/e/f/e/ | E,/d/e/d/ c/e/d/c/ | cB B"_" g/f/ | f/e/!4!d/e/ g/f/e/f/ | %28
 !4!a!4!g x/"_" ^c/c/c/ | !4!d/e/f/d/ c/e/d/B/ | ce c"_" [eg]/[df]/ | %31
!>(! [^ce][ce]!>)![ce][cg] | [df][df][df] [df]/[ce]/ |!>(! [Bd][Bd]!>)![Bd][Bf] | %34
 [ce][ce][ce] [ce]/[Bd]/ |"_" [Ac]/[Ac]/[Ac]/[Ac]/ [Ac]/[Ac]/ [A^d]/[Ad]/ | %36
 [Be]/ e/^d/=d/ c/ c/B/A/ | [Be]/ e/^d/=d/ c/ c/B/A/ | [^GBe]2 x!D.C.! || %39
V:2
 x | A,2 E,2 | A,2 D2 | E,2 E,2 | A,2 A,2 | A,2 E,2 | A,2 D2 | E,2 E,2 | A,2 A, z | B,2 z2 | %10
 E,2 z2 | B,2 z2 | E,2 z2 | A,2 E,2 | A,2 D2 | E,2 E,2 | A,2 E,2 | A,2 E,2 | A,2 E,2 | A,2 E,2 | %20
 A,2 A,2 | A,2 z ||[K:C] x | A,2 E,2 | A,2 A,2 | E,2 A,2 | E,2 E, z | C2 G2 | !1!F!2!E z/ G/G/G/ | %29
 !3!F2 GG | C2 C z | x4 | x4 | x4 | x4 | x4 | ^G/ x/ x x2 | ^G/ x/ x x2 | E,2 !fermata!z || %39
V:3
 !1!E/ !2!D/ | !2!D/ !2!C/ !2!B,/ !2!C/ !1!E/ !2!D/ !2!C/ !2!D/ | %2
 !1!F !1!E- !1!E/ !1!F/ !1!G/ !1!A/ | !1!A/ !1!G/ !1!F/ !1!E/ !1!E/ !2!D/ !2!C/ !2!D/ | %4
 !2!^B, !2!C- !2!C !1!E/ !2!D/ | !2!D/ !2!C/ !2!B,/ !2!C/ !1!E/ !2!D/ !2!C/ !2!D/ | %6
 !1!F !1!E- !1!E/ !1!F/ !1!G/ !1!A/ | !1!A/ !1!G/ !1!F/ !1!E/ !1!E/ !2!D/ !2!C/ !2!B,/ | %8
 !3!A, !2!C !3!A, !1!E/ !1!E/ | !2!^D3/2 !1!A/ !1!G/ !1!F/ !1!E/ !2!D/ | %10
 !1!E3/2 !1!G/ !1!F/ !1!E/ !2!^D/ !1!E/ | !2!^D3/2 !1!A/ !1!G/ !1!F/ !1!E/ !2!D/ | %12
 !1!E/ !1!F/ !1!G/ !1!F/ !1!E/ !2!D/ !2!C/ !2!B,/ | %13
 !2!D/ !2!C/ !2!B,/ !2!C/ !1!E/ !2!D/ !2!C/ !2!D/ | !1!F !1!E- !1!E/ !1!F/ !1!G/ !1!A/ | %15
 !1!A/ !1!G/ !1!F/ !1!E/ !1!E/ !2!D/ !2!C/ !2!B,/ | %16
 !3!A,/ !1!A/ !1!G/ !1!F/ !2!^D/ !1!E/ !2!B,/ !2!=D/ | %17
 !2!C/ !1!A/ !1!G/ !1!F/ !2!^D/ !1!E/ !2!=D/ !2!B,/ | %18
 !3!A,/ !1!A/ !1!G/ !1!F/ !2!^D/ !1!E/ !2!B,/ !2!=D/ | %19
 !2!C/ !1!A/ !1!G/ !1!F/ !2!^D/ !1!E/ !2!=D/ !2!B,/ | !3!A,2 [!2!C!1!A]2 | [!2!C!1!A]2 x || %22
[K:C] !1!E/ !2!D/ | !2!D/ !2!C/ !2!B,/ !2!C/ !1!E/ !2!D/ !2!^C/ !2!D/ | %24
 !1!F !1!E !5!A,,/ !1!E/ !1!F/ !1!E/ | x/ !2!D/ !1!E/ !2!D/ !2!C/ !1!E/ !2!D/ !2!C/ | %26
 !2!C !2!B, !2!B, !1!G/ !1!F/ | !1!F/ !1!E/ !2!D/ !1!E/ !1!G/ !1!F/ !1!E/ !1!F/ | %28
 !1!A !1!G x/ !2!^C/ !2!C/ !2!C/ | !2!D/ !1!E/ !1!F/ !2!D/ !2!C/ !1!E/ !2!D/ !2!B,/ | %30
 !2!C !1!E !2!C [!2!E!1!G]/ [!2!D!1!F]/ | [!2!^C!1!E] [!2!C!1!E] [!2!C!1!E] [!2!C!1!G] | %32
 [!2!D!1!F] [!2!D!1!F] [!2!D!1!F] [!2!D!1!F]/ [!2!C!1!E]/ | %33
 [!3!B,!2!D] [!3!B,!2!D] [!3!B,!2!D] [!2!B,!1!F] | %34
 [!2!C!1!E] [!2!C!1!E] [!2!C!1!E] [!2!C!1!E]/ [!3!B,!2!D]/ | %35
 [!3!A,!2!C]/ [!3!A,!2!C]/ [!3!A,!2!C]/ [!3!A,!2!C]/ [!3!A,!2!C]/ [!3!A,!2!C]/ [!3!A,!2!^D]/ [!3!A,!2!D]/ | %36
 [!2!B,!1!E]/ !1!E/ !2!^D/ !2!=D/ !2!C/ !2!C/ !2!B,/ !3!A,/ | %37
 [!2!B,!1!E]/ !1!E/ !2!^D/ !2!=D/ !2!C/ !2!C/ !2!B,/ !3!A,/ | [!3!^G,!2!B,!1!E]2 x || %39
V:4
 x | !5!A,,2 !6!E,,2 | !5!A,,2 !4!D,2 | !6!E,,2 !6!E,,2 | !5!A,,2 !5!A,,2 | !5!A,,2 !6!E,,2 | %6
 !5!A,,2 !4!D,2 | !6!E,,2 !6!E,,2 | !5!A,,2 !5!A,, x | !5!B,,2 x2 | !6!E,,2 x2 | !5!B,,2 x2 | %12
 !6!E,,2 x2 | !5!A,,2 !6!E,,2 | !5!A,,2 !4!D,2 | !6!E,,2 !6!E,,2 | !5!A,,2 !6!E,,2 | %17
 !5!A,,2 !6!E,,2 | !5!A,,2 !6!E,,2 | !5!A,,2 !6!E,,2 | !5!A,,2 !5!A,,2 | !5!A,,2 x ||[K:C] x | %23
 !5!A,,2 !6!E,,2 | !5!A,,2 x2 | !6!E,,2 !5!A,,2 | !6!E,,2 !6!E,, x | !5!C,2 !3!G,2 | %28
 !4!F, !4!E, x/ !3!G,/ !3!G,/ !3!G,/ | !4!F,2 !3!G, !3!G, | !5!C,2 !5!C, x | x4 | x4 | x4 | x4 | %35
 x4 | !3!^G,/ x/ x x2 | !3!^G,/ x/ x x2 | !6!E,,2 x || %39
V:5
 c/B/ | B/A/G/A/ c/B/^A/B/ | dc D/d/e/f/ | f/e/d/c/ c/B/^A/B/ | !>!GA- Ac/B/ | B/A/G/A/ c/B/^A/B/ | %6
 dc D/d/e/f/ | f/e/d/c/ c/B/A/G/ | CE C z |"_" A/B/A/B/ A/B/A/B/ | G/B/G/B/ G/B/G/B/ | %11
 A/B/A/B/ A/B/A/B/ | G/A/B/A/ G/E/F/G/ | B/A/G/A/ c/B/^A/B/ | dc D/d/e/f/ | f/e/d/c/ c/B/A/G/ | %16
"_" A/c/E/A/ G/E/G/E/ | A/c/E/A/ E/G/E/G/ | A/c/E/A/ G/E/G/E/ | A/c/E/A/ E/G/E/G/ | [EA]2 [EA]2 | %21
 [EA]2 x ||[K:C] c/B/ | B/A/G/A/ c/B/^A/B/ | dc A,/c/d/c/ | ^G,/B/c/B/ A/c/B/A/ | %26
 A^G G"_" !4!e/d/ | d/c/!4!B/c/ e/!4!d/c/d/ | [Acf][Gce] x/ !4!_B/B/B/ | A/G/A/F/ E/G/!4!F/D/ | %30
 EG E x | z/"_" _B/A/^G/ A/=G/F/E/ | D/F/A/F/ D x | z/ _A/G/^F/ G/=F/E/D/ | C/E/G/E/ C x | %35
"_" A,/^G,/A,/=G,/ F,/F/F,/F/ | E,/[E^G]/[^FA]/[GB]/ [Ac]/C/D/^D/ | %37
 E,/[E^G]/[^FA]/[GB]/ [Ac]/C/D/^D/ | E2 !fermata!z || %39
V:6
 x | A,2 E,2 | A,2 D2 | E2 E,2 | A,2 C2 | A,2 E,2 | A,2 D2 | E2 E2 | C2 C z | FF FF | EE EE | %11
 FF FF | E2 x2 | A,2 E,2 | A,2 D2 | E2 E2 | x4 | x4 | x4 | x4 | C2 C2 | C2 z ||[K:C] x | A,2 E,2 | %24
 A,2 A,2 | ^G,2 A,/C/D/^D/ | E2 E z | C2 G,2 | CC z/ G,/G,/G,/ | F,2 G,G, | C2 C z | x4 | D2 D z | %33
 x4 | C2 C z | A,/^G,/A,/=G,/ F,F, | E,2 A,/C/D/^D/ | E,2 A,/C/D/^D/ | E2 x || %39
V:7
 !2!C/ !2!B,/ | !2!B,/ !3!A,/ !3!G,/ !3!A,/ !2!C/ !2!B,/ !3!^A,/ !2!B,/ | %2
 !2!D !2!C- !2!C/ !2!D/ !1!E/ !1!F/ | !1!F/ !1!E/ !2!D/ !2!C/ !2!C/ !2!B,/ !3!^A,/ !2!B,/ | %4
 !3!G, !3!A,- !3!A, !2!C/ !2!B,/ | !2!B,/ !3!A,/ !3!G,/ !3!A,/ !2!C/ !2!B,/ !3!^A,/ !2!B,/ | %6
 !2!D !2!C- !2!C/ !2!D/ !1!E/ !1!F/ | !1!F/ !1!E/ !2!D/ !2!C/ !2!C/ !2!B,/ !3!A,/ !3!G,/ | %8
 !5!C, !4!E, !5!C, x | !3!A,/ !2!B,/ !3!A,/ !2!B,/ !3!A,/ !2!B,/ !3!A,/ !2!B,/ | %10
 !3!G,/ !2!B,/ !3!G,/ !2!B,/ !3!G,/ !2!B,/ !3!G,/ !2!B,/ | %11
 !3!A,/ !2!B,/ !3!A,/ !2!B,/ !3!A,/ !2!B,/ !3!A,/ !2!B,/ | %12
 !3!G,/ !3!A,/ !2!B,/ !3!A,/ !3!G,/ !4!E,/ !4!F,/ !3!G,/ | %13
 !2!B,/ !3!A,/ !3!G,/ !3!A,/ !2!C/ !2!B,/ !3!^A,/ !2!B,/ | !2!D !2!C- !2!C/ !2!D/ !1!E/ !1!F/ | %15
 !1!F/ !1!E/ !2!D/ !2!C/ !2!C/ !2!B,/ !3!A,/ !3!G,/ | %16
 !3!A,/ !2!C/ !4!E,/ !3!A,/ !3!G,/ !4!E,/ !3!G,/ !4!E,/ | %17
 !3!A,/ !2!C/ !4!E,/ !3!A,/ !4!E,/ !3!G,/ !4!E,/ !3!G,/ | %18
 !3!A,/ !2!C/ !4!E,/ !3!A,/ !3!G,/ !4!E,/ !3!G,/ !4!E,/ | %19
 !3!A,/ !2!C/ !4!E,/ !3!A,/ !4!E,/ !3!G,/ !4!E,/ !3!G,/ | [!4!E,!3!A,]2 [!4!E,!3!A,]2 | %21
 [!4!E,!3!A,]2 x ||[K:C] !2!C/ !2!B,/ | !2!B,/ !3!A,/ !3!G,/ !3!A,/ !2!C/ !2!B,/ !3!^A,/ !2!B,/ | %24
 !2!D !2!C !5!A,,/ !2!C/ !2!D/ !2!C/ | x/ !2!B,/ !2!C/ !2!B,/ !3!A,/ !2!C/ !2!B,/ !3!A,/ | %26
 !3!A, !3!^G, !3!G, !2!E/ !2!D/ | !2!D/ !2!C/ !2!B,/ !2!C/ !1!E/ !2!D/ !2!C/ !2!D/ | %28
 [!3!A,!2!C!1!F] [!3!G,!2!C!1!E] x/ !3!_B,/ !3!B,/ !3!B,/ | %29
 !3!A,/ !3!G,/ !3!A,/ !4!F,/ !4!E,/ !3!G,/ !4!F,/ !4!D,/ | !4!E, !3!G, !4!E, x | %31
 x/ !3!_B,/ !3!A,/ !3!^G,/ !3!A,/ !3!=G,/ !4!F,/ !4!E,/ | x/ !4!F,/ !3!A,/ !4!F,/ x x | %33
 x/ !3!_A,/ !3!G,/ !4!^F,/ !3!G,/ !4!=F,/ !4!E,/ !4!D,/ | !5!C,/ !4!E,/ !3!G,/ !4!E,/ !5!C, x | %35
 !5!A,,/ !6!^G,,/ !5!A,,/ !6!=G,,/ !6!F,,/ !4!F,/ !6!F,,/ !4!F,/ | %36
 !6!E,,/ [!4!E,!3!^G,]/ [!4!^F,!3!A,]/ [!3!G,!2!B,]/ [!3!A,!2!C]/ !5!C,/ !4!D,/ !4!^D,/ | %37
 !6!E,,/ [!4!E,!3!^G,]/ [!4!^F,!3!A,]/ [!3!G,!2!B,]/ [!3!A,!2!C]/ !5!C,/ !4!D,/ !4!^D,/ | %38
 !4!E,2 x || %39
V:8
 x | !5!A,,2 !6!E,,2 | !5!A,,2 !4!D,2 | !4!E,2 !6!E,,2 | !5!A,,2 !5!C,2 | !5!A,,2 !6!E,,2 | %6
 !5!A,,2 !4!D,2 | !4!E,2 !4!E,2 | x2 x x | !4!F, !4!F, !4!F, !4!F, | !4!E, !4!E, !4!E, !4!E, | %11
 !4!F, !4!F, !4!F, !4!F, | !4!E,2 x2 | !5!A,,2 !6!E,,2 | !5!A,,2 !4!D,2 | !4!E,2 !4!E,2 | x4 | x4 | %18
 x4 | x4 | !5!C,2 !5!C,2 | !5!C,2 x ||[K:C] x | !5!A,,2 !6!E,,2 | !5!A,,2 x2 | %25
 !6!^G,,2 !5!A,,/ !5!C,/ !4!D,/ !4!^D,/ | !4!E,2 !4!E, x | !5!C,2 !6!G,,2 | %28
 !5!C, !5!C, x/ !6!G,,/ !6!G,,/ !6!G,,/ | !6!F,,2 !6!G,, !6!G,, | !5!C,2 !5!C, x | x4 | %32
 !5!D,2 !5!D, x | x4 | x2 x x | x/ x/ x/ x/ x x | x2 !5!A,,/ x/ x/ x/ | x2 !5!A,,/ x/ x/ x/ | %38
 x2 x || %39

